X:1
T:Finn Gustavs Vals
R:Vals
O:Västerbotten, Hallnäs
O:Degerfors, Edlunda
B:http://www.smus.se/earkiv/fmk/browselarge.php?lang=sw&katalogid=Upprop+19&bildnr=00037
S:efter Nils Jansson
L:1/8
M:3/4
Z:Nils L
Q:180
%%printtempo 0
K:Dm
A2 F2 [DA]2 | f2 e2 d2 | ^ce Ac ec | d^c de fd | 
A2 F2 D2 | f2 e2 d2 | ^ce Ac ec |1 d2 z2 z2 :|2 d2 z2 de |:
f2 {fg} fe fg | a3 gf{gf}e | e2 {ef}ec ce | [eg]4 fe | 
d2 d^c de | f2 e2 d2 | ^ce Ac ec | d2 z2 :|

